packages/icon/src/svg/x-circle.icon.svg

<svg width="24" height="24" viewBox="0 0 24 24" fill="none" xmlns="http://www.w3.org/2000/svg">
<path fill-rule="evenodd" clip-rule="evenodd" d="M12 2C6.47998 2 2 6.47998 2 12C2 17.52 6.47998 22 12 22C17.52 22 22 17.52 22 12C22 6.47998 17.52 2 12 2ZM12 20C7.58997 20 4 16.41 4 12C4 7.58997 7.58997 4 12 4C16.41 4 20 7.58997 20 12C20 16.41 16.41 20 12 20ZM15.889 9.52515L13.4142 12L15.889 14.4749C16.0844 14.6702 16.0844 14.9867 15.889 15.182L15.182 15.889C14.9867 16.0844 14.6702 16.0844 14.4749 15.889L12 13.4142L9.52515 15.889C9.32983 16.0844 9.01331 16.0844 8.81799 15.889L8.11096 15.182C7.91565 14.9867 7.91565 14.6702 8.11096 14.4749L10.5858 12L8.11096 9.52515C7.91565 9.32983 7.91565 9.01331 8.11096 8.81799L8.81799 8.11096C9.01331 7.91565 9.32983 7.91565 9.52515 8.11096L12 10.5858L14.4749 8.11096C14.6702 7.91565 14.9867 7.91565 15.182 8.11096L15.889 8.81799C16.0844 9.01331 16.0844 9.32983 15.889 9.52515Z" fill="white"/>
</svg>

<svg aria-label="x circle icon" viewBox="0 0 24 24"><path fill-rule="evenodd" clip-rule="evenodd" d="M12 2C6.48 2 2 6.48 2 12s4.48 10 10 10 10-4.48 10-10S17.52 2 12 2zm0 18c-4.41 0-8-3.59-8-8s3.59-8 8-8 8 3.59 8 8-3.59 8-8 8zm3.889-10.475L13.414 12l2.475 2.475a.5.5 0 010 .707l-.707.707a.5.5 0 01-.707 0L12 13.414 9.525 15.89a.5.5 0 01-.707 0l-.707-.707a.5.5 0 010-.707L10.586 12 8.11 9.525a.5.5 0 010-.707l.707-.707a.5.5 0 01.707 0L12 10.586l2.475-2.475a.5.5 0 01.707 0l.707.707a.5.5 0 010 .707z"/></svg>
